!!!OTL: MIT MEINEM GOTT GEH ICH ZUR RUH
!!!ARE: Europa, Mitteleuropa, Deutschland
!!!SCT: F1046
!!!YEM: Copyright 1995, estate of Helmut Schaffrath.
**kern
*ICvox
*Ivox
*M4/4
*k[b-e-a-d-]
*A-:
{4e-
=1
4e-
4e-
4.f
8f
=2
4g
4g
4.a-}
{8a-
=3
4cc
8b-
8a-
4.g
8g
=4
4a-
8g
8f
4c
8r}
{8c
=5
4.d-
8d-
4.e-
8e-
=6
2f
2f}
=7
{4e-
8f
8g
4.a-
8e-
=8
4e-
8f
8g
4.a-}
{8a-
=9
4dd-
4cc
4b-
8a-
8f
=10
4e-
4d-
4.c}
{8c
=11
4d-
8f
8b-
4dd-
8cc
8a-
=12
2.cc
4b-
=13
2.a-}
==
!!!AGN: Trost - Lied, religioes
!!!ONB: ESAC (Essen Associative Code) Database: FINK
!!!AMT: simple quadruple
!!!AIN: vox
!!!EED: Helmut Schaffrath
!!!EEV: 1.0
*-
